X:1
T: Miss Drummond of Perth's Favourite Scotch Measure
C:
R:Reel
Q: 232
K:Gm
M:4/4
L:1/8
GA|B2 AB G2 GA|B2 Bc d2 cB|A2 f2 F2 c2|AB cF D2 GA|
B2 AB G^F GA|BA Bc d2 ef|g2 d2 ed cB|A4 G2|
|:((3D=E^F)|G^F GA BA Bc|dc BA GA BG|Ac Fc Ac FA|
fg af FG AF|G^F GA BA Bc|dc BA GA BG|AB cA d2 c2|A4 G2:|
|:g^f|gd gd gd gd|B2 AB G2 d=e|fc fc fc fc|A2 GA F2 ga|
b2 ag a2 g^f|g2 ab d2 cB|c2 g2 G2 g^f|g4 G2:|
